img/icons/icon-card-white.svg

<?xml version="1.0" encoding="UTF-8"?>
<svg width="32px" height="22px" viewBox="0 0 32 22" version="1.1" xmlns="http://www.w3.org/2000/svg" xmlns:xlink="http://www.w3.org/1999/xlink">
    <!-- Generator: Sketch 59.1 (86144) - https://sketch.com -->
    <title>icon-card-white</title>
    <desc>Created with Sketch.</desc>
    <g id="Page-1" stroke="none" stroke-width="1" fill="none" fill-rule="evenodd">
        <g id="icon-card-white" fill="#FEFEFE" fill-rule="nonzero">
            <path d="M30,0 L2,0 C0.896,0 0,0.896 0,2 L0,20 C0,21.104 0.896,22 2,22 L30,22 C31.104,22 32,21.104 32,20 L32,2 C32,0.896 31.104,0 30,0 Z M2,2 L30,2 L30,20 L2,20 L2,2 Z M27.166,10 L15,10 C14.448,10 14,10.448 14,11 C14,11.552 14.448,12 15,12 L27.166,12 C27.718,12 28.166,11.552 28.166,11 C28.166,10.448 27.718,10 27.166,10 Z M27.166,14 L15,14 C14.448,14 14,14.448 14,15 C14,15.552 14.448,16 15,16 L27.166,16 C27.718,16 28.166,15.552 28.166,15 C28.166,14.448 27.718,14 27.166,14 Z M27.166,6 L15,6 C14.448,6 14,6.448 14,7 C14,7.552 14.448,8 15,8 L27.166,8 C27.718,8 28.166,7.552 28.166,7 C28.166,6.448 27.718,6 27.166,6 Z M5.58,6.416 C5.58,7.05676 5.83454,7.67128 6.28763,8.12437 C6.74072,8.57746 7.35524,8.832 7.996,8.832 C8.63676,8.832 9.25128,8.57746 9.70437,8.12437 C10.1575,7.67128 10.412,7.05676 10.412,6.416 C10.412,5.77524 10.1575,5.16072 9.70437,4.70763 C9.25128,4.25454 8.63676,4 7.996,4 C7.35524,4 6.74072,4.25454 6.28763,4.70763 C5.83454,5.16072 5.58,5.77524 5.58,6.416 Z M8.048,9.798 C5.864,9.798 4.096,12.17 4.096,15.098 C4.096,18.026 12,18.024 12,15.098 C12,12.172 10.23,9.798 8.048,9.798 Z" id="Shape"></path>
        </g>
    </g>
</svg>

<svg width="32" height="22" xmlns="http://www.w3.org/2000/svg"><path d="M30 0H2a2 2 0 00-2 2v18a2 2 0 002 2h28a2 2 0 002-2V2a2 2 0 00-2-2zM2 2h28v18H2V2zm25.166 8H15a1 1 0 000 2h12.166a1 1 0 000-2zm0 4H15a1 1 0 000 2h12.166a1 1 0 000-2zm0-8H15a1 1 0 000 2h12.166a1 1 0 000-2zM5.58 6.416a2.416 2.416 0 104.832 0 2.416 2.416 0 00-4.832 0zm2.468 3.382c-2.184 0-3.952 2.372-3.952 5.3s7.904 2.926 7.904 0-1.77-5.3-3.952-5.3z" fill="#FEFEFE"/></svg>
